svg/fluentui-system-icons/ic_fluent_lasso_24_filled.svg

<svg width="24" height="24" viewBox="0 0 24 24" fill="none" xmlns="http://www.w3.org/2000/svg">
<path d="M9.70298 2.2653C10.4415 2.09164 11.2107 2 12 2C12.7893 2 13.5585 2.09164 14.297 2.2653C14.8346 2.39173 15.168 2.93004 15.0416 3.46766C14.9151 4.00528 14.3768 4.33862 13.8392 4.2122C13.2497 4.07357 12.6341 4 12 4C11.3659 4 10.7503 4.07357 10.1608 4.2122C9.62317 4.33862 9.08486 4.00528 8.95844 3.46766C8.83201 2.93004 9.16536 2.39173 9.70298 2.2653ZM15.8825 3.81676C16.1734 3.34725 16.7897 3.2024 17.2592 3.49322C18.577 4.30945 19.6905 5.42304 20.5068 6.74076C20.7976 7.21027 20.6528 7.82664 20.1832 8.11747C19.7137 8.4083 19.0974 8.26344 18.8065 7.79393C18.1531 6.73901 17.261 5.84691 16.2061 5.19347C15.7366 4.90264 15.5917 4.28627 15.8825 3.81676ZM8.11747 3.81676C8.4083 4.28627 8.26344 4.90264 7.79393 5.19347C6.73901 5.84691 5.84691 6.73901 5.19347 7.79393C4.90264 8.26344 4.28627 8.4083 3.81676 8.11747C3.34725 7.82665 3.2024 7.21027 3.49322 6.74076C4.30945 5.42304 5.42304 4.30945 6.74076 3.49322C7.21027 3.2024 7.82664 3.34725 8.11747 3.81676ZM3.46766 8.95843C4.00528 9.08486 4.33862 9.62317 4.2122 10.1608C4.07357 10.7503 4 11.3659 4 12C4 12.6341 4.07357 13.2497 4.2122 13.8392C4.33862 14.3768 4.00528 14.9151 3.46766 15.0416C2.93004 15.168 2.39173 14.8346 2.2653 14.297C2.09164 13.5585 2 12.7893 2 12C2 11.2107 2.09164 10.4415 2.2653 9.70298C2.39173 9.16536 2.93004 8.83201 3.46766 8.95843ZM20.5323 8.95844C21.07 8.83201 21.6083 9.16536 21.7347 9.70298C21.9084 10.4415 22 11.2107 22 12C22 12.7893 21.9084 13.5585 21.7347 14.297C21.6083 14.8346 21.07 15.168 20.5323 15.0416C19.9947 14.9151 19.6614 14.3768 19.7878 13.8392C19.9264 13.2497 20 12.6341 20 12C20 11.3659 19.9264 10.7503 19.7878 10.1608C19.6614 9.62317 19.9947 9.08486 20.5323 8.95844ZM3.81676 15.8825C4.28627 15.5917 4.90264 15.7366 5.19347 16.2061C5.84691 17.261 6.73901 18.1531 7.79393 18.8065C8.26344 19.0974 8.4083 19.7137 8.11747 20.1832C7.82665 20.6528 7.21027 20.7976 6.74076 20.5068C5.42304 19.6906 4.30945 18.577 3.49322 17.2592C3.2024 16.7897 3.34725 16.1734 3.81676 15.8825ZM20.6217 17.4903C20.8925 17.0089 20.7218 16.3992 20.2404 16.1284C19.7598 15.858 19.1514 16.0273 18.88 16.5072L18.8793 16.5084L18.8788 16.5093L18.8663 16.5304C18.8538 16.5513 18.8328 16.5855 18.8035 16.6311C18.7448 16.7224 18.653 16.8587 18.5283 17.025C18.3476 17.2659 18.1007 17.566 17.7886 17.882C16.5966 16.8694 14.9938 16 12.9999 16C10.7333 16 9.00005 17.2 9 19C8.99995 20.8 10.7332 22 12.9999 22C14.9101 22 16.4586 21.3659 17.6391 20.5854C17.9855 21.0105 18.2612 21.4177 18.4626 21.744C18.595 21.9585 18.6937 22.1354 18.758 22.2559C18.7901 22.316 18.8135 22.3619 18.8281 22.3911L18.8433 22.422L18.8455 22.4265L18.846 22.4276C19.0818 22.9261 19.6768 23.1397 20.1759 22.9048C20.6756 22.6696 20.89 22.0738 20.6548 21.5741C20.5376 21.3428 20.6541 21.5726 20.6541 21.5726L20.6531 21.5706L20.6506 21.5653L20.6429 21.5494C20.639 21.5413 20.6342 21.5314 20.6284 21.5197C20.6249 21.5127 20.6211 21.505 20.6169 21.4966C20.5949 21.4526 20.5634 21.391 20.5226 21.3144C20.441 21.1615 20.3215 20.9478 20.1645 20.6935C19.9269 20.3086 19.5998 19.8247 19.184 19.3152C19.5835 18.9137 19.8979 18.5322 20.1283 18.225C20.2848 18.0163 20.4039 17.8401 20.4859 17.7127C20.5269 17.6489 20.5587 17.5971 20.5813 17.5594C20.5926 17.5406 20.6016 17.5252 20.6084 17.5136L20.6168 17.4991L20.6197 17.4939L20.6208 17.4919L20.6217 17.4903ZM12.9999 18C14.2257 18 15.2857 18.4757 16.1689 19.1445C15.3081 19.6407 14.2531 20 12.9999 20C11.2666 20 11 19.2 11 19C11 18.8 11.2667 18 12.9999 18Z" fill="#212121"/>
</svg>

<svg xmlns="http://www.w3.org/2000/svg" width="24" height="24"><path d="M9.703 2.265A10.026 10.026 0 0 1 12 2c.79 0 1.559.092 2.297.265a1 1 0 0 1-.458 1.947A8.025 8.025 0 0 0 12 4c-.634 0-1.25.074-1.84.212a1 1 0 1 1-.457-1.947Zm6.18 1.552a1 1 0 0 1 1.376-.324 10.047 10.047 0 0 1 3.248 3.248 1 1 0 1 1-1.7 1.053 8.046 8.046 0 0 0-2.6-2.6 1 1 0 0 1-.325-1.377Zm-7.766 0a1 1 0 0 1-.323 1.376 8.047 8.047 0 0 0-2.6 2.6 1 1 0 1 1-1.7-1.052A10.047 10.047 0 0 1 6.74 3.493a1 1 0 0 1 1.376.324Zm-4.65 5.141a1 1 0 0 1 .745 1.203A8.025 8.025 0 0 0 4 12c0 .634.074 1.25.212 1.84a1 1 0 0 1-1.947.457A10.026 10.026 0 0 1 2 12c0-.79.092-1.559.265-2.297a1 1 0 0 1 1.203-.745Zm17.065 0a1 1 0 0 1 1.203.745 10.068 10.068 0 0 1 0 4.594 1 1 0 0 1-1.947-.458 8.062 8.062 0 0 0 0-3.679 1 1 0 0 1 .744-1.202ZM3.817 15.883a1 1 0 0 1 1.376.323 8.046 8.046 0 0 0 2.6 2.6 1 1 0 0 1-1.052 1.7 10.046 10.046 0 0 1-3.248-3.247 1 1 0 0 1 .324-1.377Zm16.805 1.607a1 1 0 0 0-1.742-.983v.001l-.001.001-.013.021a6.74 6.74 0 0 1-.338.495 8.41 8.41 0 0 1-.74.857C16.598 16.869 14.995 16 13 16c-2.267 0-4 1.2-4 3s1.733 3 4 3c1.91 0 3.459-.634 4.64-1.415a10.979 10.979 0 0 1 1.118 1.67l.07.136.015.031.003.005a1 1 0 0 0 1.809-.853c-.117-.231 0-.001 0-.001l-.002-.002-.002-.006-.008-.016a2.82 2.82 0 0 0-.015-.03l-.011-.022a11.486 11.486 0 0 0-.452-.803 12.974 12.974 0 0 0-.981-1.379c.4-.401.714-.783.944-1.09a8.788 8.788 0 0 0 .453-.666c.012-.018.02-.034.027-.045l.009-.015.003-.005v-.002l.002-.002ZM13 18c1.226 0 2.286.476 3.169 1.145a6.268 6.268 0 0 1-3.17.855C11.268 20 11 19.2 11 19c0-.2.267-1 2-1Z"/></svg>
